X:1
T:[ID 1-92a]
T:[ID 1-92a]
T:Bezeichnung standardisiert: Capelahn; Capelahn In anderer Quelle: Menuet - Hs. Musicq Boek, ab 1740 (Anm. S. Wascher);
T:Urheber unbekannt Erstbeleg: ab 1740 (Datum in der schriftlichen Quelle) Datum in der hier transkribierten schriftlichen Quelle: vermutlich vor 1767
C:Urheber unbekannt
C:Erstbeleg: ab 1740 (Datum in der schriftlichen Quelle)
C:Datum in der hier transkribierten schriftlichen Quelle: vermutlich vor 1767
L:1/8
M:3/4
K:D
V:1 treble 
V:1
 de f2 e2 | d4 A2 | fg a2 g2 | fefg f2 | de f2 e2 | d4 A2 | fg a2 g2 | f6 :: fgaf g2 | efge f2 | %10
 fgaf g2 | efge f2 | defgef | d6 :| %14

